X: 5
T: An Drochaid Chliùteach
R: three-two
M: 3/2
L: 1/8
K: Amix
M: 6/4
|: ce ee fe ef ee a2 | ce ee fe ef ec BB |
ce ee fe ef ee a2 | AA AB c2 ce BG AA :|
|: ae ee fe ef ee a2 | ae ee fe ef ec BB|
ae ee fe ef ee a2 | AA AB c2 ce BG AA :|


Tune 5151	Setting 20977

